src/assets/icons/umbrella-beach-solid.svg

<svg aria-hidden="true" data-prefix="fas" data-icon="umbrella-beach" class="svg-inline--fa fa-umbrella-beach fa-w-20" role="img" xmlns="http://www.w3.org/2000/svg" viewBox="0 0 640 512"><path fill="currentColor" d="M115.38 136.9l102.11 37.18c35.19-81.54 86.21-144.29 139-173.7-95.88-4.89-188.78 36.96-248.53 111.8-6.69 8.4-2.66 21.05 7.42 24.72zm132.25 48.16l238.48 86.83c35.76-121.38 18.7-231.66-42.63-253.98-7.4-2.7-15.13-4-23.09-4-58.02.01-128.27 69.17-172.76 171.15zM521.48 60.5c6.22 16.3 10.83 34.6 13.2 55.19 5.74 49.89-1.42 108.23-18.95 166.98l102.62 37.36c10.09 3.67 21.31-3.43 21.57-14.17 2.32-95.69-41.91-187.44-118.44-245.36zM560 447.98H321.06L386 269.5l-60.14-21.9-72.9 200.37H16c-8.84 0-16 7.16-16 16.01v32.01C0 504.83 7.16 512 16 512h544c8.84 0 16-7.17 16-16.01v-32.01c0-8.84-7.16-16-16-16z"></path></svg>

<?xml version="1.0" standalone="no"?><!-- Generator: Gravit.io --><svg xmlns="http://www.w3.org/2000/svg" xmlns:xlink="http://www.w3.org/1999/xlink" style="isolation:isolate" viewBox="0 0 640 512" width="640" height="512"><defs><clipPath id="_clipPath_4hY9U18XQ2SBjYgqveKOXcPnm38JHZmE"><rect width="640" height="512"/></clipPath></defs><g clip-path="url(#_clipPath_4hY9U18XQ2SBjYgqveKOXcPnm38JHZmE)"><path d=" M 115.38 136.9 L 217.49 174.08 C 252.68 92.54 303.7 29.79 356.49 0.38 C 260.61 -4.51 167.71 37.34 107.96 112.18 C 101.27 120.58 105.3 133.23 115.38 136.9 L 115.38 136.9 Z  M 247.63 185.06 L 486.11 271.89 C 521.87 150.51 504.81 40.23 443.48 17.91 C 436.08 15.21 428.35 13.91 420.39 13.91 C 362.37 13.92 292.12 83.08 247.63 185.06 L 247.63 185.06 Z  M 521.48 60.5 C 527.7 76.8 532.31 95.1 534.68 115.69 C 540.42 165.58 533.26 223.92 515.73 282.67 L 618.35 320.03 C 628.44 323.7 639.66 316.6 639.92 305.86 C 642.24 210.17 598.01 118.42 521.48 60.5 L 521.48 60.5 Z  M 560 447.98 L 321.06 447.98 L 386 269.5 L 325.86 247.6 L 252.96 447.97 L 16 447.97 C 7.16 447.97 0 455.13 0 463.98 L 0 495.99 C 0 504.83 7.16 512 16 512 L 560 512 C 568.84 512 576 504.83 576 495.99 L 576 463.98 C 576 455.14 568.84 447.98 560 447.98 Z " fill="rgb(255,255,255)"/></g></svg>
